X: 118
T: Mrs. MacDonald, Ord
R:Reel
S:MacDonald - Skye Collection
N:pg.45
M:C
L:1/8
K:A Mix
B|A2 (AF) A2 DD|BA (AF) B2B2|dA (AG) FG AF|ED EF B2A:|
A|(B<d) AG FA A2|(B<d) AA B3A|(B<d) AG FA A2|FE DE FB A:|


